X:13596
T:Primrose Lass, The
R:reel
H:Other versions: #651, #104. In A: #489.
D:Dervish: Harmony Hill
Z:id:hn-reel-618
M:C|
K:G
~b3a ~g3e|dB~B2 dega|~b3a ~g3e|dBGA BA~A2:|
|:Bd~d2 edgd|edgd edgd|Bd~d2 edge|1 dBGB A2GA:|2 dBGB A2G2||
